src/assets/img/decline.svg

<?xml version="1.0" encoding="UTF-8"?>
<svg fill="none" viewBox="0 0 70 70" xmlns="http://www.w3.org/2000/svg">
    <path d="m35 70c19.33 0 35-15.67 35-35s-15.67-35-35-35-35 15.67-35 35 15.67 35 35 35zm14.401-16.109-14.062-14.062-14.062 14.062-5.6247-5.6247 14.062-14.062-14.062-14.062 5.6248-5.6247 14.062 14.062 14.062-14.062 5.6247 5.6247-14.062 14.062 14.062 14.062-5.6247 5.6247z"
          clip-rule="evenodd" fill="#FF5470" fill-rule="evenodd"/>
</svg>

<svg width="70" height="70" viewBox="0 0 70 70" fill="none" xmlns="http://www.w3.org/2000/svg">
<path fill-rule="evenodd" clip-rule="evenodd" d="M35 70C54.33 70 70 54.33 70 35C70 15.67 54.33 0 35 0C15.67 0 0 15.67 0 35C0 54.33 15.67 70 35 70ZM49.4009 53.8911L35.3392 39.8294L21.2775 53.8911L15.6528 48.2664L29.7145 34.2047L15.6526 20.1428L21.2774 14.5181L35.3392 28.5799L49.401 14.5181L55.0257 20.1428L40.9639 34.2047L55.0256 48.2664L49.4009 53.8911Z" fill="#FF5470"/>
</svg>
